svg/question_circle_negative.svg

<?xml version="1.0" encoding="UTF-8" standalone="no"?>
<!-- Created with Inkscape (http://www.inkscape.org/) -->
<svg id="svg8" xmlns:rdf="http://www.w3.org/1999/02/22-rdf-syntax-ns#" xmlns="http://www.w3.org/2000/svg" xmlns:osb="http://www.openswatchbook.org/uri/2009/osb" height="48" width="48" version="1.1" xmlns:cc="http://creativecommons.org/ns#" viewBox="0 0 12.7 12.7" xmlns:dc="http://purl.org/dc/elements/1.1/">
 <title id="title4753">UIO-icon</title>
 <metadata id="metadata5">
  <rdf:RDF>
   <cc:Work rdf:about="">
    <dc:format>image/svg+xml</dc:format>
    <dc:type rdf:resource="http://purl.org/dc/dcmitype/StillImage"/>
    <dc:title>UIO-icon</dc:title>
    <dc:creator>
     <cc:Agent>
      <dc:title>Joaquín Urbano</dc:title>
     </cc:Agent>
    </dc:creator>
    <dc:rights>
     <cc:Agent>
      <dc:title>GPL</dc:title>
     </cc:Agent>
    </dc:rights>
   </cc:Work>
  </rdf:RDF>
 </metadata>
 <g id="layer1" fill="#333" transform="translate(0,-284.3)">
  <path id="rect883" d="m0 0v48h48v-48zm24 4a20 20 0 0 1 20 20 20 20 0 0 1 -20 20 20 20 0 0 1 -20 -20 20 20 0 0 1 20 -20zm0.083984 8.5469c-1.869 0-3.3879 0.51407-4.5586 1.541-1.1604 1.0167-1.7509 2.3559-1.7715 4.0195h2.8496c0-0.93452 0.31837-1.6779 0.95508-2.2324 0.6367-0.55455 1.4779-0.83203 2.5254-0.83203 1.0783 0 1.9 0.30766 2.4648 0.92383 0.56482 0.6059 0.84766 1.4491 0.84766 2.5273 0 1.1194-0.43034 2.167-1.293 3.1426l-2.0195 2.0781c-0.79075 0.86263-1.3136 1.6488-1.5703 2.3574-0.25674 0.70859-0.39548 1.6744-0.41602 2.8965h2.8496c0-1.561 0.37533-2.758 1.125-3.5898l1.677-1.664c1.6636-1.7458 2.4961-3.5173 2.4961-5.3145 0-1.8177-0.54425-3.244-1.6328-4.2812-1.078-1.047-2.588-1.572-4.529-1.572zm-0.43 19.672c-0.55455 0-0.97613 0.15821-1.2637 0.47656-0.27727 0.30808-0.41602 0.69413-0.41602 1.1562 0 0.46212 0.13874 0.84621 0.41602 1.1543 0.28754 0.29782 0.70912 0.44727 1.2637 0.44727 0.55455 0 0.97417-0.14945 1.2617-0.44727 0.28754-0.30808 0.43164-0.69217 0.43164-1.1543 0-0.46212-0.1441-0.84817-0.43164-1.1562-0.288-0.319-0.707-0.477-1.262-0.477z" fill-rule="evenodd" transform="matrix(.26458 0 0 .26458 0 284.3)"/>
 </g>
</svg>

<svg width="48" height="48" viewBox="0 0 48 48" fill="none" xmlns="http://www.w3.org/2000/svg">
<path fill-rule="evenodd" clip-rule="evenodd" d="M0 0V47.9994H47.9994V0H0ZM23.9997 3.99995C26.6261 3.99995 29.2268 4.51726 31.6533 5.52234C34.0798 6.52742 36.2845 8.00059 38.1417 9.85774C39.9988 11.7149 41.472 13.9196 42.4771 16.3461C43.4821 18.7726 43.9994 21.3733 43.9995 23.9997C43.9994 29.304 41.8923 34.391 38.1417 38.1417C34.391 41.8923 29.304 43.9995 23.9997 43.9995C21.3733 43.9995 18.7726 43.4821 16.3461 42.4771C13.9196 41.472 11.7149 39.9988 9.85774 38.1417C6.10706 34.391 3.99995 29.304 3.99995 23.9997C3.99995 18.6954 6.10706 13.6084 9.85774 9.85774C13.6084 6.10706 18.6954 3.99995 23.9997 3.99995ZM24.0837 12.5467C22.2147 12.5467 20.6958 13.0608 19.5251 14.0877C18.3648 15.1044 17.7743 16.4436 17.7537 18.1072H20.6032C20.6032 17.1727 20.9216 16.4293 21.5583 15.8748C22.195 15.3203 23.0362 15.0428 24.0837 15.0428C25.1619 15.0428 25.9836 15.3504 26.5484 15.9666C27.1132 16.5725 27.3961 17.4157 27.3961 18.4939C27.3961 19.6133 26.9657 20.6608 26.1031 21.6364L24.0836 23.7145C23.2929 24.5771 22.77 25.3633 22.5133 26.0719C22.2566 26.7805 22.1179 27.7463 22.0973 28.9683H24.9469C24.9469 27.4074 25.3222 26.2104 26.0719 25.3786L27.7489 23.7146C29.4124 21.9688 30.2449 20.1973 30.2449 18.4002C30.2449 16.5825 29.7007 15.1562 28.6121 14.119C27.5342 13.072 26.0242 12.547 24.0832 12.547L24.0837 12.5467ZM23.6537 32.2185C23.0991 32.2185 22.6776 32.3767 22.39 32.6951C22.1127 33.0031 21.974 33.3892 21.974 33.8512C21.974 34.3134 22.1127 34.6974 22.39 35.0055C22.6775 35.3033 23.0991 35.4528 23.6537 35.4528C24.2082 35.4528 24.6278 35.3033 24.9154 35.0055C25.2029 34.6974 25.347 34.3134 25.347 33.8512C25.347 33.3891 25.2029 33.0031 24.9154 32.6951C24.6274 32.3761 24.2084 32.2181 23.6534 32.2181L23.6537 32.2185Z" fill="#333333"/>
</svg>
